X: 5
T: Jenny Lind
R: polka
M: 2/4
L: 1/8
K: Gmaj
FA GB | Af f/e/f | Ae e/f/e | Ad d/c/B/A/ | FA/F/ GB/G/ | Af fe/f/ | Ae e/g/f/e/ | dc d :|dB B/c/d/B/ | AF F>F | GE E/F/G/E/ | FD DF/A/ |dB Bd/B/ | AF FA/F/ | GE A,/B,/C/E/ | DF D :|d/^c/d g/d/B | dc c/B/c | d/^c/d =c'f | ag g/f/g |d/^c/d gB | dc c/B/c | d/^c/d =c'/a/f |[1 gg g :|[2 gg g2 |||: B/c/d B/c/d | ec c/B/c | A/B/c A/B/c | gd d/^c/d |B/c/d B/c/d | ec c/B/c | A/B/c a/g/f |[1 g2 g2 :|[2 g2- g |]


Tune 4883	Setting 17309

